X: 2901
T: Barney's Balmoral
R: reel
M: 4/4
K: Dmajor
e|f3 A BABd-|defA BABd|f3 A BABd|e2 dB Add:|
e|f2 af- fafd|e2 fd BdBA|f2 af- fafd|e2 dB Add
e|f2 af- fafd|e2 fd BdBA|f2 af e2 fd|B2 BA Bdd||

